!!!!SEGMENT: pl-kk--kk-i-636--001-003_anonim--in-corona-domini-lamentatio-2da.krn
!!!cenid: 18xx:4525
!!!COM: Anonim
!!!COM-rismID: pe30004985
!!!CDT:
!!!CNT:
!!!OPR: In Corona Domini
!!!OTL: Lamentatio 2da
!!!OMV: 003
!!!PDT:
!!!AGN: Sacred
!!!YEC: Copyright 2022 Narodowy Instytut Fryderyka Chopina (https://polishscores.org)
!!!YEM: License CC-BY-4.0 (https://creativecommons.org/licenses/by/4.0)
!!!SMS-siglum: PL-Kk
!!!SMS-shelfmark: Kk.I.636
!!!SMS-variant:
!!!SMS-altvar:
!!!SMS-shelfwork: 001-003 M
!!!NIFC-rismSourceID: 1001216440
!!!NIFC-rismChildID: 1001216903
!!!NIFC-islandoraID: pl-kk:40786
!!!URL-pdf-islandora: https://repozytorium.nifc.pl/islandora/object/pl-kk%3A40786/datastream/PDF/view
!!!URL-scan: https://polish.musicsources.pl/pl/lokalizacje/galeria/rekopisy/7271/1 @EN{Scan on Polish Music Sources Website} @PL{Skany w portalu Dziedzictwo Muzyki Polskiej w otwartym dostępie}
!!!IIIF:
!!!ONB-nifc: UWAGA: Lamentacje i Responsoria In Corona Domini na skanach: S – 1-7, A – 24-30, T – 45-52, B – 70-78. Każda Lamentacja i Responsorium to oddzielne pliki.
!!!OMD:
!!!AIN: 1 bass
!!!key: B-
**kern	**text	**kern	**kern	**kern
*part4	*part4	*part3	*part2	*part1
*staff4	*staff4	*staff3	*staff2	*staff1
*I"Basso.	*	*I"Tenore.	*I"Alto.	*I"Soprano.
*I'B	*	*I'T	*I'A	*I'S
*Ibass	*	*	*	*
*ICvox	*	*	*	*
*clefF4	*	*clefC4	*clefC3	*clefC1
*k[b-e-a-]	*	*k[b-e-a-]	*k[b-e-a-]	*k[b-e-a-]
*B-:	*	*B-:	*B-:	*B-:
*M2/4	*	*M2/4	*M2/4	*M2/4
=1	=1	=1	=1	=1
!!LO:TX:t=P:problem=all\right:global
!	!	!LO:TX:a:t=Lamentatio 2da. Tacet.	!LO:TX:a:t=Lamentatio 2da. Tacet.	!LO:TX:a:t=Lamentatio 2da. tacet.\n Seq(eu) Respons&colon; 2m.
4G\	Va-	2ryy	2ryy	2ryy
4F\	.	.	.	.
=2	=2	=2	=2	=2
4E-\	.	2ryy	2ryy	2ryy
4F\	.	.	.	.
=3	=3	=3	=3	=3
*2\right	*	*	*	*
2F\	-u,	2ryy	2ryy	2ryy
=4	=4	=4	=4	=4
2E-;\	.	2ryy	2ryy	2ryy
!LO:LB:g=original	!	!	!	!
=5||	=5||	=5||	=5||	=5||
4E-\	et	2ryy	2ryy	2ryy
4F\	.	.	.	.
=6	=6	=6	=6	=6
4G\	,	2ryy	2ryy	2ryy
8r	.	.	.	.
8G\	e-	.	.	.
=7	=7	=7	=7	=7
8G\	-gres-	2ryy	2ryy	2ryy
8G\	-sus	.	.	.
4G\	est	.	.	.
=8	=8	=8	=8	=8
8r	.	2ryy	2ryy	2ryy
8G\	a	.	.	.
8G\	fi-	.	.	.
16G\	-li-	.	.	.
16G\	-a	.	.	.
=9	=9	=9	=9	=9
8G\	Si-	2ryy	2ryy	2ryy
8G\	-on,	.	.	.
4r	.	.	.	.
!LO:LB:g=original	!	!	!	!
=10	=10	=10	=10	=10
4r	.	2ryy	2ryy	2ryy
8G\	om-	.	.	.
8G\	-nis	.	.	.
=11	=11	=11	=11	=11
4A-\	de-	2ryy	2ryy	2ryy
4G\	-cor	.	.	.
=12	=12	=12	=12	=12
4F\	e-	2ryy	2ryy	2ryy
(4F\	-jus	.	.	.
=13	=13	=13	=13	=13
4G\)	,	2ryy	2ryy	2ryy
4r	.	.	.	.
=14	=14	=14	=14	=14
4E-\	fa-	2ryy	2ryy	2ryy
(4F\	.	.	.	.
=15	=15	=15	=15	=15
8G\)	.	2ryy	2ryy	2ryy
8G\	-cti	.	.	.
4G\	sunt	.	.	.
!LO:LB:g=original	!	!	!	!
=16	=16	=16	=16	=16
8G\	Prin-	2ryy	2ryy	2ryy
16G\	-ci-	.	.	.
16G\	-pes	.	.	.
8G\	e-	.	.	.
8G\	-jus	.	.	.
=17	=17	=17	=17	=17
4r	.	2ryy	2ryy	2ryy
8G\	ve-	.	.	.
16G\	-lut	.	.	.
16G\	a-	.	.	.
=18	=18	=18	=18	=18
8G\	-ri-	2ryy	2ryy	2ryy
8G\	-e-	.	.	.
4G\	-tes	.	.	.
!LO:LB:g=original	!	!	!	!
=19	=19	=19	=19	=19
8G\	non	2ryy	2ryy	2ryy
8G\	in-	.	.	.
8G\	-ve-	.	.	.
8G\	-ni-	.	.	.
=20	=20	=20	=20	=20
4A-\	-en-	2ryy	2ryy	2ryy
4G\	-tes	.	.	.
=21	=21	=21	=21	=21
8F\	pas-	2ryy	2ryy	2ryy
8F\	-cu-	.	.	.
(4F\	-a	.	.	.
=22	=22	=22	=22	=22
4G\)	,	2ryy	2ryy	2ryy
4r	.	.	.	.
!LO:LB:g=original	!	!	!	!
=23	=23	=23	=23	=23
4E-\	et	2ryy	2ryy	2ryy
(4F\	a-	.	.	.
=24	=24	=24	=24	=24
8G\)	.	2ryy	2ryy	2ryy
8G\	-bi-	.	.	.
8G\	-e-	.	.	.
8G\	-runt	.	.	.
=25	=25	=25	=25	=25
4r	.	2ryy	2ryy	2ryy
8G\	ab-	.	.	.
8G\	-sque	.	.	.
=26	=26	=26	=26	=26
8G\	for-	2ryy	2ryy	2ryy
8G\	-ti-	.	.	.
16G\	-tu-	.	.	.
16G\	-di-	.	.	.
8G\	-ne,	.	.	.
!LO:LB:g=original	!	!	!	!
=27	=27	=27	=27	=27
4r	.	2ryy	2ryy	2ryy
8G\	an-	.	.	.
8G\	-te	.	.	.
=28	=28	=28	=28	=28
8.G\	fa-	2ryy	2ryy	2ryy
16G\	-ci-	.	.	.
4G\	-em	.	.	.
=29	=29	=29	=29	=29
4A-\	sub-	2ryy	2ryy	2ryy
4F\	-se-	.	.	.
=30	=30	=30	=30	=30
4E-\	-quen-	2ryy	2ryy	2ryy
4D\	.	.	.	.
=31	=31	=31	=31	=31
4E-\	.	2ryy	2ryy	2ryy
4F\	.	.	.	.
!LO:LB:g=original	!	!	!	!
=32	=32	=32	=32	=32
2F\	-tis	2ryy	2ryy	2ryy
=33	=33	=33	=33	=33
2E-;\	,	2ryy	2ryy	2ryy
=34||	=34||	=34||	=34||	=34||
4G\	Za-	2ryy	2ryy	2ryy
4F\	.	.	.	.
=35	=35	=35	=35	=35
4E-\	.	2ryy	2ryy	2ryy
4F\	.	.	.	.
=36	=36	=36	=36	=36
2F\	-in	2ryy	2ryy	2ryy
=37	=37	=37	=37	=37
2E-;\	,	2ryy	2ryy	2ryy
=38||	=38||	=38||	=38||	=38||
4E-\	re-	2ryy	2ryy	2ryy
4F\	-cor-	.	.	.
!LO:LB:g=original	!	!	!	!
=39	=39	=39	=39	=39
8G\	-da-	2ryy	2ryy	2ryy
8G\	-ta	.	.	.
8G\	est	.	.	.
8G\	Je-	.	.	.
=40	=40	=40	=40	=40
8G\	-ru-	2ryy	2ryy	2ryy
8G\	-sa-	.	.	.
4G\	-lem	.	.	.
=41	=41	=41	=41	=41
8r	.	2ryy	2ryy	2ryy
8G\	di-	.	.	.
8G\	-e-	.	.	.
8G\	-rum	.	.	.
!LO:LB:g=original	!	!	!	!
=42	=42	=42	=42	=42
8r	.	2ryy	2ryy	2ryy
8G\	af-	.	.	.
8G\	-fli-	.	.	.
8G\	-cti-	.	.	.
=43	=43	=43	=43	=43
8G\	-o-	2ryy	2ryy	2ryy
8G\	-nis	.	.	.
8G\	su-	.	.	.
8G\	-ae,	.	.	.
=44	=44	=44	=44	=44
8r	.	2ryy	2ryy	2ryy
8G\	et	.	.	.
8G\	pre-	.	.	.
16G\	-va-	.	.	.
16G\	-ri-	.	.	.
!LO:PB:g=original	!	!	!	!
=45	=45	=45	=45	=45
8G\	-ca-	2ryy	2ryy	2ryy
8G\	-ti-	.	.	.
8G\	-o-	.	.	.
8G\	-nis,	.	.	.
=46	=46	=46	=46	=46
4r	.	2ryy	2ryy	2ryy
8G\	om-	.	.	.
16G\	-ni-	.	.	.
16G\	-um	.	.	.
=47	=47	=47	=47	=47
4G\	de-	2ryy	2ryy	2ryy
8G\	-si-	.	.	.
16G\	-de-	.	.	.
16G\	-ra-	.	.	.
!LO:LB:g=original	!	!	!	!
=48	=48	=48	=48	=48
8.G\	-bi-	2ryy	2ryy	2ryy
16G\	-li-	.	.	.
8G\	-um	.	.	.
8G\	su-	.	.	.
=49	=49	=49	=49	=49
8G\	-o-	2ryy	2ryy	2ryy
8G\	-rum,	.	.	.
4r	.	.	.	.
=50	=50	=50	=50	=50
4r	.	2ryy	2ryy	2ryy
8G\	quae	.	.	.
8G\	ha-	.	.	.
=51	=51	=51	=51	=51
8G\	-bu-	2ryy	2ryy	2ryy
16G\	-e-	.	.	.
16G\	-rat	.	.	.
8G\	a	.	.	.
8G\	di-	.	.	.
!LO:LB:g=original	!	!	!	!
=52	=52	=52	=52	=52
4A-\	-e-	2ryy	2ryy	2ryy
8G\	-bus	.	.	.
8G\	an-	.	.	.
=53	=53	=53	=53	=53
4F\	-ti-	2ryy	2ryy	2ryy
4F\	-quis	.	.	.
=54	=54	=54	=54	=54
4G\	,	2ryy	2ryy	2ryy
4r	.	.	.	.
=55	=55	=55	=55	=55
4E-\	cum	2ryy	2ryy	2ryy
(4F\	ca-	.	.	.
=56	=56	=56	=56	=56
8G\)	.	2ryy	2ryy	2ryy
16G\	-de-	.	.	.
16G\	-ret	.	.	.
!LO:LB:g=original	!	!	!	!
=-	=-	=-	=-	=-
8G\	po-	.	.	.
16G\	-pu-	.	.	.
16G\	-lus	.	.	.
=57	=57	=57	=57	=57
8G\	e-	2ryy	2ryy	2ryy
8G\	-jus,	.	.	.
8r	.	.	.	.
8G\	in	.	.	.
=58	=58	=58	=58	=58
4G\	ma-	2ryy	2ryy	2ryy
8G\	-nu	.	.	.
8G\	hos-	.	.	.
=59	=59	=59	=59	=59
8G\	-ti-	2ryy	2ryy	2ryy
8G\	-li,	.	.	.
4r	.	.	.	.
!LO:LB:g=original	!	!	!	!
=60	=60	=60	=60	=60
8G\	et	2ryy	2ryy	2ryy
8G\	non	.	.	.
8G\	es-	.	.	.
16G\	-set	.	.	.
16G\	au-	.	.	.
=61	=61	=61	=61	=61
4A-\	-xi-	2ryy	2ryy	2ryy
8F\	-li-	.	.	.
8F\	-a-	.	.	.
=62	=62	=62	=62	=62
2F\	-tor	2ryy	2ryy	2ryy
=63	=63	=63	=63	=63
2E-;\	,	2ryy	2ryy	2ryy
=64||	=64||	=64||	=64||	=64||
4E-\	vi-	2ryy	2ryy	2ryy
(4F\	-de-	.	.	.
!LO:LB:g=original	!	!	!	!
=65	=65	=65	=65	=65
8G\)	.	2ryy	2ryy	2ryy
8G\	-runt	.	.	.
8G\	e-	.	.	.
8G\	-am	.	.	.
=66	=66	=66	=66	=66
8G\	hos-	2ryy	2ryy	2ryy
8G\	-tes	.	.	.
8r	.	.	.	.
8G\	et	.	.	.
=67	=67	=67	=67	=67
8G\	de-	2ryy	2ryy	2ryy
8G\	-ri-	.	.	.
8G\	-se-	.	.	.
8G\	-runt	.	.	.
!LO:LB:g=original	!	!	!	!
=68	=68	=68	=68	=68
8.A-\	Sab-	2ryy	2ryy	2ryy
16F\	-ba-	.	.	.
4F\	-ta	.	.	.
=69	=69	=69	=69	=69
4E-\	e-	2ryy	2ryy	2ryy
4D\	.	.	.	.
=70	=70	=70	=70	=70
4E-\	.	2ryy	2ryy	2ryy
4F\	.	.	.	.
=71	=71	=71	=71	=71
2F\	-jus	2ryy	2ryy	2ryy
=72	=72	=72	=72	=72
2E-;\	,	2ryy	2ryy	2ryy
=73||	=73||	=73||	=73||	=73||
4G\	Heth	2ryy	2ryy	2ryy
4F\	.	.	.	.
!LO:LB:g=original	!	!	!	!
=74	=74	=74	=74	=74
4E-\	.	2ryy	2ryy	2ryy
4F\	.	.	.	.
=75	=75	=75	=75	=75
2E-;\	,	2ryy	2ryy	2ryy
=76||	=76||	=76||	=76||	=76||
4E-\	pec-	2ryy	2ryy	2ryy
(4F\	-ca-	.	.	.
=77	=77	=77	=77	=77
8G\)	.	2ryy	2ryy	2ryy
8G\	-tum	.	.	.
8r	.	.	.	.
8G\	pec-	.	.	.
=78	=78	=78	=78	=78
4G\	-ca-	2ryy	2ryy	2ryy
8G\	-vit	.	.	.
8G\	Je-	.	.	.
!LO:LB:g=original	!	!	!	!
=79	=79	=79	=79	=79
16G\	-ru-	2ryy	2ryy	2ryy
16G\	-sa-	.	.	.
8G\	-lem	.	.	.
8r	.	.	.	.
8G\	prop-	.	.	.
=80	=80	=80	=80	=80
8.G\	-te-	2ryy	2ryy	2ryy
16G\	-re-	.	.	.
8G\	-a	.	.	.
8G\	in-	.	.	.
=81	=81	=81	=81	=81
8.A-\	-sta-	2ryy	2ryy	2ryy
16F\	-bi-	.	.	.
4F\	-lis	.	.	.
!LO:LB:g=original	!	!	!	!
=82	=82	=82	=82	=82
8F\	fac-	2ryy	2ryy	2ryy
8F\	-ta	.	.	.
4F\	est	.	.	.
=83	=83	=83	=83	=83
2E-;\	,	2ryy	2ryy	2ryy
=84||	=84||	=84||	=84||	=84||
4E-\	o-	2ryy	2ryy	2ryy
(4F\	.	.	.	.
=85	=85	=85	=85	=85
8G\)	.	2ryy	2ryy	2ryy
8G\	-mnes,	.	.	.
4r	.	.	.	.
=86	=86	=86	=86	=86
8G\	qui	2ryy	2ryy	2ryy
8G\	glo-	.	.	.
8G\	-ri-	.	.	.
8G\	-fi-	.	.	.
!LO:LB:g=original	!	!	!	!
=87	=87	=87	=87	=87
8G\	-ca-	2ryy	2ryy	2ryy
8G\	-bant	.	.	.
8G\	e-	.	.	.
8G\	-am	.	.	.
=88	=88	=88	=88	=88
4r	.	2ryy	2ryy	2ryy
4G\	spre-	.	.	.
=89	=89	=89	=89	=89
4A-\	-ve-	2ryy	2ryy	2ryy
4G\	-runt	.	.	.
=90	=90	=90	=90	=90
4F\	il-	2ryy	2ryy	2ryy
(4F\	-lam	.	.	.
=91	=91	=91	=91	=91
4G\)	,	2ryy	2ryy	2ryy
4r	.	.	.	.
=92	=92	=92	=92	=92
4E-\	qui-	2ryy	2ryy	2ryy
(4F\	.	.	.	.
!LO:LB:g=original	!	!	!	!
=93	=93	=93	=93	=93
8G\)	.	2ryy	2ryy	2ryy
8G\	-a	.	.	.
8r	.	.	.	.
8G\	vi-	.	.	.
=94	=94	=94	=94	=94
8G\	-de-	2ryy	2ryy	2ryy
8G\	-runt	.	.	.
8G\	i-	.	.	.
8G\	-gno-	.	.	.
=95	=95	=95	=95	=95
8.A-\	-mi-	2ryy	2ryy	2ryy
16F\	-ni-	.	.	.
8F\	-am	.	.	.
8F\	e-	.	.	.
=96	=96	=96	=96	=96
2F\	-jus	2ryy	2ryy	2ryy
=97	=97	=97	=97	=97
!LO:TX:b:t=Volti Subitto&colon;	!	!	!	!
2E-;\	.	2ryy	2ryy	2ryy
!LO:PB:g=original	!	!	!	!
=98||	=98||	=98||	=98||	=98||
4E-\	ip-	2ryy	2ryy	2ryy
(4F\	.	.	.	.
=99	=99	=99	=99	=99
8G\)	.	2ryy	2ryy	2ryy
8G\	-sa	.	.	.
8G\	au-	.	.	.
8G\	-tem	.	.	.
=100	=100	=100	=100	=100
8G\	ge-	2ryy	2ryy	2ryy
8G\	-mens,	.	.	.
8r	.	.	.	.
8G\	con-	.	.	.
=101	=101	=101	=101	=101
4G\	-ver-	2ryy	2ryy	2ryy
4G\	-sa	.	.	.
!LO:LB:g=original	!	!	!	!
=102	=102	=102	=102	=102
4A-\	est	2ryy	2ryy	2ryy
4F\	re-	.	.	.
=103	=103	=103	=103	=103
4E-\	-tror-	2ryy	2ryy	2ryy
4D\	.	.	.	.
=104	=104	=104	=104	=104
4E-\	.	2ryy	2ryy	2ryy
4F\	.	.	.	.
=105	=105	=105	=105	=105
2F\	-sum	2ryy	2ryy	2ryy
=106	=106	=106	=106	=106
2E-;\	,	2ryy	2ryy	2ryy
=107||	=107||	=107||	=107||	=107||
4G\	Feth	2ryy	2ryy	2ryy
4F\	.	.	.	.
!LO:LB:g=original	!	!	!	!
=108	=108	=108	=108	=108
4E-\	.	2ryy	2ryy	2ryy
4F\	.	.	.	.
=109	=109	=109	=109	=109
2E-;\	,	2ryy	2ryy	2ryy
=110||	=110||	=110||	=110||	=110||
4E-\	sor-	2ryy	2ryy	2ryy
(4F\	.	.	.	.
=111	=111	=111	=111	=111
8G\)	.	2ryy	2ryy	2ryy
8G\	-des	.	.	.
8G\	e-	.	.	.
8G\	-jus,	.	.	.
=112	=112	=112	=112	=112
4r	.	2ryy	2ryy	2ryy
4G\	in	.	.	.
!LO:LB:g=original	!	!	!	!
=113	=113	=113	=113	=113
8.A-\	pe-	2ryy	2ryy	2ryy
16G\	-di-	.	.	.
4G\	-bus	.	.	.
=114	=114	=114	=114	=114
4F\	e-	2ryy	2ryy	2ryy
4F\	-jus	.	.	.
=115	=115	=115	=115	=115
4G\	,	2ryy	2ryy	2ryy
4r	.	.	.	.
=116	=116	=116	=116	=116
8r	.	2ryy	2ryy	2ryy
8G\	nec	.	.	.
8G\	re-	.	.	.
8G\	-cor-	.	.	.
=117	=117	=117	=117	=117
8G\	-da-	2ryy	2ryy	2ryy
8G\	-ta	.	.	.
4G\	est	.	.	.
!LO:LB:g=original	!	!	!	!
=118	=118	=118	=118	=118
4A-\	fi-	2ryy	2ryy	2ryy
8F\	-nis	.	.	.
8F\	su-	.	.	.
=119	=119	=119	=119	=119
2F\	-i	2ryy	2ryy	2ryy
=120	=120	=120	=120	=120
2E-;\	,	2ryy	2ryy	2ryy
=121||	=121||	=121||	=121||	=121||
4E-\	de-	2ryy	2ryy	2ryy
(4F\	-po-	.	.	.
=122	=122	=122	=122	=122
8G\)	.	2ryy	2ryy	2ryy
16G\	-si-	.	.	.
16G\	-ta	.	.	.
4G\	est	.	.	.
!LO:LB:g=original	!	!	!	!
=123	=123	=123	=123	=123
8G\	ve-	2ryy	2ryy	2ryy
8G\	-he-	.	.	.
8G\	-men-	.	.	.
8G\	-ter	.	.	.
=124	=124	=124	=124	=124
8r	.	2ryy	2ryy	2ryy
8G\	non	.	.	.
8G\	ha-	.	.	.
8G\	-bens	.	.	.
=125	=125	=125	=125	=125
8.A-\	con-	2ryy	2ryy	2ryy
16A-\	-so-	.	.	.
8.F\	-la-	.	.	.
16F\	-to-	.	.	.
!LO:LB:g=original	!	!	!	!
=126	=126	=126	=126	=126
2F\	-rem	2ryy	2ryy	2ryy
=127	=127	=127	=127	=127
2E-;\	,	2ryy	2ryy	2ryy
=128||	=128||	=128||	=128||	=128||
4E-\	vi-	2ryy	2ryy	2ryy
(4F\	-de	.	.	.
=129	=129	=129	=129	=129
8G\)	,	2ryy	2ryy	2ryy
16G\	Do-	.	.	.
16G\	-mi-	.	.	.
4G\	-ne,	.	.	.
=130	=130	=130	=130	=130
8G\	ve-	2ryy	2ryy	2ryy
8G\	-he-	.	.	.
8G\	-men-	.	.	.
8G\	-ter	.	.	.
!LO:LB:g=original	!	!	!	!
=131	=131	=131	=131	=131
8r	.	2ryy	2ryy	2ryy
8G\	non	.	.	.
8G\	ha-	.	.	.
8G\	-bens	.	.	.
=132	=132	=132	=132	=132
8.A-\	con-	2ryy	2ryy	2ryy
16A-\	-so-	.	.	.
8F\	-la-	.	.	.
8F\	-to-	.	.	.
=133	=133	=133	=133	=133
2F\	-rem	2ryy	2ryy	2ryy
=134	=134	=134	=134	=134
2E-;\	,	2ryy	2ryy	2ryy
=135||	=135||	=135||	=135||	=135||
4E-\	vi-	2ryy	2ryy	2ryy
4F\	-de	.	.	.
!LO:LB:g=original	!	!	!	!
=136	=136	=136	=136	=136
8G\	Do-	2ryy	2ryy	2ryy
8G\	-mi-	.	.	.
4G\	-ne	.	.	.
=137	=137	=137	=137	=137
8r	.	2ryy	2ryy	2ryy
8G\	af-	.	.	.
8G\	-fli-	.	.	.
8G\	-cti-	.	.	.
=138	=138	=138	=138	=138
4A-\	-o-	2ryy	2ryy	2ryy
4G\	-nem	.	.	.
=139	=139	=139	=139	=139
4F\	me-	2ryy	2ryy	2ryy
4F\	-am	.	.	.
=140	=140	=140	=140	=140
4G\	,	2ryy	2ryy	2ryy
4r	.	.	.	.
!LO:LB:g=original	!	!	!	!
=141	=141	=141	=141	=141
8.G\	quo-	2ryy	2ryy	2ryy
16G\	-ni-	.	.	.
4G\	-am	.	.	.
=142	=142	=142	=142	=142
8r	.	2ryy	2ryy	2ryy
8G\	e-	.	.	.
8G\	-rec-	.	.	.
16G\	-tus	.	.	.
16G\	est	.	.	.
=143	=143	=143	=143	=143
4A-\	i-	2ryy	2ryy	2ryy
4F\	-ni-	.	.	.
=144	=144	=144	=144	=144
4E-\	-mi-	2ryy	2ryy	2ryy
4D\	.	.	.	.
!LO:LB:g=original	!	!	!	!
=145	=145	=145	=145	=145
4E-\	.	2ryy	2ryy	2ryy
4F\	.	.	.	.
=146	=146	=146	=146	=146
2F\	-cus	2ryy	2ryy	2ryy
=147	=147	=147	=147	=147
2E-;\	,	2ryy	2ryy	2ryy
=148||	=148||	=148||	=148||	=148||
4E-\	Je-	2ryy	2ryy	2ryy
(4F\	-ru-	.	.	.
=149	=149	=149	=149	=149
8G\)	.	2ryy	2ryy	2ryy
8G\	-sa-	.	.	.
4G\	-lem,	.	.	.
=150	=150	=150	=150	=150
4r	.	2ryy	2ryy	2ryy
4G\	Je-	.	.	.
!LO:LB:g=original	!	!	!	!
=151	=151	=151	=151	=151
4A-\	-ru-	2ryy	2ryy	2ryy
(4G\	.	.	.	.
=152	=152	=152	=152	=152
8F\)	.	2ryy	2ryy	2ryy
8F\	-sa-	.	.	.
4F\	-lem	.	.	.
=153	=153	=153	=153	=153
4G\	,	2ryy	2ryy	2ryy
4r	.	.	.	.
=154	=154	=154	=154	=154
4E-\	con-	2ryy	2ryy	2ryy
(4F\	-ver-	.	.	.
=155	=155	=155	=155	=155
8G\)	.	2ryy	2ryy	2ryy
8G\	-te-	.	.	.
4G\	-re	.	.	.
!LO:PB:g=original	!	!	!	!
=156	=156	=156	=156	=156
8r	.	2ryy	2ryy	2ryy
8G\	ad	.	.	.
8G\	Do-	.	.	.
16G\	-mi-	.	.	.
16G\	-num	.	.	.
=157	=157	=157	=157	=157
4A-\	De-	2ryy	2ryy	2ryy
4F\	-um	.	.	.
=158	=158	=158	=158	=158
4E-\	tu-	2ryy	2ryy	2ryy
4D\	.	.	.	.
=159	=159	=159	=159	=159
4E-\	.	2ryy	2ryy	2ryy
4F\	.	.	.	.
=160	=160	=160	=160	=160
2F\	-um	2ryy	2ryy	2ryy
=161	=161	=161	=161	=161
2E-;\	.	2ryy	2ryy	2ryy
==	==	==	==	==
*-	*-	*-	*-	*-
!!!system-decoration: [(s1,s2,s3,s4)]
!!!ENC: Berenika Jozajtis
!!!END: 2023-11-13
!!!EED: Marta Chmielewska
!!!EEV: 2024-06-03
